src/assets/pagui-vector-2.svg

<svg width="591" height="261" viewBox="0 0 591 261" fill="none" xmlns="http://www.w3.org/2000/svg">
<path d="M700 9.06177e-05L0 0.512695L0.256302 350.513L700.256 350L700 9.06177e-05Z" fill="white"/>
<path d="M175 0.384544L0 0.512695L0.128151 175.513L175.128 175.385L175 0.384544Z" fill="white"/>
<path d="M87.5 0.44862L0 0.512695L0.0640756 88.0127L87.5641 87.9486L87.5 0.44862Z" fill="#F18B94"/>
<path d="M175 0.384655L87.5 0.44873L87.5641 87.9487L175.064 87.8846L175 0.384655Z" fill="#6077AD" fill-opacity="0.35"/>
<path d="M87.5 0.44873L175.064 87.8846L87.5641 87.9487L87.5 0.44873Z" fill="#F18B94"/>
<path d="M87.5639 87.9486L0.0639648 88.0127L0.12804 175.513L87.628 175.449L87.5639 87.9486Z" fill="#F18B94" fill-opacity="0.41"/>
<path d="M350 0.25637L175 0.384521L175.128 175.384L350.128 175.256L350 0.25637Z" fill="white"/>
<path d="M262.5 0.320446L175 0.384521L175.064 87.8845L262.564 87.8204L262.5 0.320446Z" fill="#FDEFE7"/>
<path d="M218.814 87.8525C242.977 87.8348 262.55 68.2329 262.532 44.0704C262.514 19.908 242.912 0.33479 218.75 0.352484C194.588 0.370178 175.014 19.9721 175.032 44.1345C175.05 68.297 194.652 87.8702 218.814 87.8525Z" fill="#6077AD"/>
<path d="M262.564 87.8204L175.064 87.8845L175.128 175.385L262.628 175.32L262.564 87.8204Z" fill="#FCE3D7" fill-opacity="0.28"/>
<path d="M218.878 175.352C243.04 175.335 262.614 155.733 262.596 131.57C262.578 107.408 242.976 87.8348 218.814 87.8525C194.652 87.8702 175.078 107.472 175.096 131.635C175.114 155.797 194.716 175.37 218.878 175.352Z" fill="#F18B94"/>
<path d="M350.064 87.7564L262.564 87.8204L262.628 175.32L350.128 175.256L350.064 87.7564Z" fill="#FFFDFC"/>
<path d="M525 0.128307L437.5 0.192383L437.564 87.6924L525.064 87.6283L525 0.128307Z" fill="#FFFCFA"/>
<path d="M437.564 87.6923L350.064 87.7563L350.128 175.256L437.628 175.192L437.564 87.6923Z" fill="#F18B94" fill-opacity="0.56"/>
<path d="M350.064 87.7563L437.564 87.6923L350.128 175.256L350.064 87.7563Z" fill="#FFFDFD"/>
<path d="M437.564 87.6923L525.064 87.6282L525.128 175.128L437.564 87.6923Z" fill="#6077AD" fill-opacity="0.63"/>
<path d="M700 2.26544e-05L525 0.128174L525.128 175.128L700.128 175L700 2.26544e-05Z" fill="white"/>
<path d="M612.5 0.0640982L525 0.128174L525.064 87.6282L612.564 87.5641L612.5 0.0640982Z" fill="#BC839C"/>
<path d="M525.064 87.6282C548.271 87.6112 570.52 78.3761 586.917 61.9547C603.315 45.5332 612.517 23.2705 612.5 0.0640982L525 0.128174" fill="#F18B94"/>
<path d="M612.564 87.5641L525.064 87.6282L525.128 175.128L612.628 175.064L612.564 87.5641Z" fill="#6077AD"/>
<path d="M175.128 175.385L0.128174 175.513L0.256325 350.513L175.256 350.385L175.128 175.385Z" fill="white"/>
<path d="M87.6282 175.449L87.6922 262.949L0.192249 263.013L87.6282 175.449Z" fill="#F18B94"/>
<path d="M525.128 175.128L350.128 175.256L350.256 350.256L525.256 350.128L525.128 175.128Z" fill="white"/>
<path d="M437.628 175.192L350.128 175.256L350.192 262.756L437.692 262.692L437.628 175.192Z" fill="#F18B94"/>
<path d="M437.692 262.692C460.898 262.675 483.148 253.44 499.545 237.019C515.942 220.597 525.145 198.335 525.128 175.128L437.628 175.192" fill="#F18B94" fill-opacity="0.44"/>
<path d="M700.128 175L525.128 175.128L525.256 350.128L700.256 350L700.128 175Z" fill="white"/>
<path d="M612.628 175.064L525.128 175.128L525.192 262.628L612.692 262.564L612.628 175.064Z" fill="#FEF7F3"/>
</svg>

<svg xmlns="http://www.w3.org/2000/svg" width="591" height="261" fill="none" xmlns:v="https://vecta.io/nano"><g fill="#fff"><path d="M700 0L0 .513l.256 350 700-.513L700 0z"/><path d="M175 .385L0 .513l.128 175 175-.128-.128-175z"/></g><path d="M87.5.449L0 .513l.064 87.5 87.5-.064L87.5.449z" fill="#f18b94"/><path d="M175 .385L87.5.449l.064 87.5 87.5-.064L175 .385z" fill="#6077ad" fill-opacity=".35"/><g fill="#f18b94"><path d="M87.5.449l87.564 87.436-87.5.064L87.5.449z"/><use href="#B" fill-opacity=".41"/></g><path d="M350 .256L175 .385l.128 174.999 175-.128-.128-175z" fill="#fff"/><path d="M262.5.32L175 .385l.064 87.5 87.5-.064L262.5.32z" fill="#fdefe7"/><path d="M218.814 87.853c24.163-.018 43.736-19.62 43.718-43.782S242.912.335 218.75.352s-43.736 19.62-43.718 43.782 19.62 43.736 43.782 43.718z" fill="#6077ad"/><path d="M262.564 87.82l-87.5.064.064 87.5 87.5-.065-.064-87.5z" fill="#fce3d7" fill-opacity=".28"/><path d="M218.878 175.352c24.162-.017 43.736-19.619 43.718-43.782s-19.62-43.735-43.782-43.717-43.736 19.619-43.718 43.782 19.62 43.735 43.782 43.717z" fill="#f18b94"/><use href="#B" x="262.5" y="-0.193" fill="#fffdfc"/><path d="M525 .128l-87.5.064.064 87.5 87.5-.064L525 .128z" fill="#fffcfa"/><use href="#B" x="350" y="-0.257" fill="#f18b94" fill-opacity=".56"/><path d="M350.064 87.756l87.5-.064-87.436 87.564-.064-87.5z" fill="#fffdfd"/><path d="M437.564 87.692l87.5-.064.064 87.5-87.564-87.436z" fill="#6077ad" fill-opacity=".63"/><path d="M700 0L525 .128l.128 175 175-.128L700 0z" fill="#fff"/><path d="M612.5.064L525 .128l.064 87.5 87.5-.064-.064-87.5z" fill="#bc839c"/><path d="M525.064 87.628a87.5 87.5 0 0 0 61.853-25.674A87.5 87.5 0 0 0 612.5.064L525 .128" fill="#f18b94"/><use href="#B" x="525" y="-0.385" fill="#6077ad"/><use href="#C" fill="#fff"/><path d="M87.628 175.449l.064 87.5-87.5.064 87.436-87.564z" fill="#f18b94"/><use href="#C" x="350" y="-0.257" fill="#fff"/><g fill="#f18b94"><use href="#B" x="350.064" y="87.243"/><path d="M437.692 262.692a87.5 87.5 0 0 0 61.853-25.673c16.397-16.422 25.6-38.684 25.583-61.891l-87.5.064" fill-opacity=".44"/></g><use href="#C" x="525" y="-0.385" fill="#fff"/><use href="#B" x="525.064" y="87.115" fill="#fef7f3"/><defs ><path id="B" d="M87.564 87.949l-87.5.064.064 87.5 87.5-.064-.064-87.5z"/><path id="C" d="M175.128 175.385l-175 .128.128 175 175-.128-.128-175z"/></defs></svg>
